X: 05010
T: BETSY'S WALTZ
C: Bob McQuillen 30 Dec 80
B: Bob's Note Book 5 #10
%R: waltz
Z: 2021 John Chambers <jc:trillian.mit.edu>
M: 3/4
L: 1/8
K: D
DF \
| A2 A2 AB | AF D2 df | e2 d2 B2 | A4 DF || A2 A2 AB | AF D2 de | f2 e3 d | e4 DF |
| A2 A2 AB | AF D2 FA | d2 de dc | c2 B2 Bc || d2 de dc | B2 A2 FD | G2 F2 E2 | D4 |]
[| de \
| f2 fe dc | B2 A2 de | f2 fe dc | B2 A2 d2 || e2 ed cd | e2 e2 de | fe d2 B2 | A4 de |
| f2 fe dc | B2 A2 de | f2 fe dc | B2 A2 FA || B2 Bc dc | B2 A2 de | f2 fd e2 | d4 |]
%%begintext align
%% Over in Harrisville, N.H.,
%% there lives a fiddler named Betsy Church. She's
%% awefully nice - giving _great_ parties! - I hope you
%% like this tune, Betsy!
%%endtext

%%sep 1 1 500

%%sep 1 1 500

